X: 2253
T: POLTHOGUE
Q: "Irish Jig."
R: Jig.
%R: slip-jig
B: James Kerr "Merry Melodies" v.2 p.28 #253
Z: 2016 John Chambers <jc:trillian.mit.edu>
M: 9/8
L: 1/8
K: C
|:\
vG2vG GFE GFE | uG2uG GFE ABc |\
vG2vG GFE GFE | uA2uA BAB c3 ::\
vcef gec BAG | ceg gec efg |\
cef gec BAG | A2A BAB c3 :|
